src/images/rocket.svg

<svg xmlns="http://www.w3.org/2000/svg" width="49" height="49" fill="none" viewBox="0 0 49 49"><g clip-path="url(#clip0)"><path fill="#F54E00" d="M48.3416 1.82733C48.2277 1.29797 47.7044 0.774597 47.1733 0.66095C44.092 0 41.6794 0 39.2773 0C29.3976 0 23.473 5.28311 19.0499 12.25H9.07627C7.51175 12.2515 5.67339 13.3865 4.97188 14.7846L0.240753 24.2413C0.0945443 24.5638 0.0127611 24.9118 0 25.2656C0.000219989 25.8748 0.242359 26.459 0.673179 26.8897C1.104 27.3204 1.68823 27.5624 2.29743 27.5625H12.2324L10.0815 29.7128C8.99383 30.8001 8.83776 32.8 10.0815 34.0434L14.9532 38.9153C16.0209 39.986 18.0307 40.1744 19.2864 38.9153L21.4373 36.765V46.7031C21.4375 47.3123 21.6796 47.8965 22.1105 48.3272C22.5413 48.7579 23.1255 48.9999 23.7347 49C24.0886 48.9869 24.4367 48.9051 24.7594 48.7592L34.208 44.0324C35.608 43.3341 36.7449 41.4963 36.7449 39.9306V29.9356C43.6927 25.5034 48.9982 19.5608 48.9982 9.73331C49.0072 7.32129 49.0072 4.90927 48.3416 1.82733ZM36.7539 16.0781C35.9968 16.0779 35.2567 15.8533 34.6273 15.4325C33.9979 15.0118 33.5074 14.4138 33.2178 13.7143C32.9282 13.0148 32.8525 12.2451 33.0003 11.5026C33.1481 10.7601 33.5128 10.0781 34.0482 9.54278C34.5836 9.0075 35.2657 8.643 36.0083 8.49536C36.7509 8.34773 37.5205 8.42359 38.22 8.71336C38.9194 9.00313 39.5172 9.49379 39.9378 10.1233C40.3584 10.7528 40.5829 11.4929 40.5829 12.25C40.5823 13.2653 40.1787 14.2388 39.4607 14.9566C38.7427 15.6744 37.7691 16.0778 36.7539 16.0781Z"/></g><defs><clipPath id="clip0"><rect width="49" height="49" fill="#fff"/></clipPath></defs></svg>

<svg fill="none" viewBox="0 0 49 49"><g clip-path="url(#clip0)"><path fill="#F54E00" d="M48.342 1.827c-.114-.529-.638-1.052-1.169-1.166C44.092 0 41.68 0 39.277 0c-9.88 0-15.804 5.283-20.227 12.25H9.076c-1.564.002-3.403 1.136-4.104 2.535L.24 24.24c-.146.323-.228.67-.241 1.025a2.298 2.298 0 002.297 2.297h9.935l-2.15 2.15c-1.088 1.087-1.244 3.087 0 4.33l4.871 4.872c1.068 1.071 3.078 1.26 4.333 0l2.151-2.15v9.938A2.297 2.297 0 0023.735 49a2.733 2.733 0 001.024-.24l9.449-4.728c1.4-.698 2.537-2.536 2.537-4.101v-9.995c6.948-4.433 12.253-10.375 12.253-20.203.01-2.412.01-4.824-.656-7.906zM36.754 16.078a3.828 3.828 0 11.002-7.656 3.828 3.828 0 01-.002 7.656z"/></g><defs><clipPath id="clip0"><path fill="#fff" d="M0 0h49v49H0z"/></clipPath></defs></svg>
